Newaita-dark/actions/32/draw-brush.svg

<svg height="32" viewBox="0 0 32 32" width="32" xmlns="http://www.w3.org/2000/svg"><path d="m25.523438 5.714844c-1.8125-1.816406-4.734376-1.816406-6.546876 0l-8.421874 8.417968-.464844.46875c-5.988282 3.238282-1.726563 5.992188-5.625 11.199219-.347656.339844-.242188.925781.203125 1.121094 5.363281 2.304687 10.03125.925781 11.96875-5.773437l.46875-.464844 8.417969-8.421875c1.816406-1.8125 1.816406-4.734375 0-6.546875zm-1.871094 1.871094c.777344.777343.777344 2.027343 0 2.804687l-.855469.855469-2.804687-2.804688.855468-.855468c.777344-.777344 2.027344-.777344 2.804688 0zm-4.597656 1.789062 2.808593 2.808594-1.015625 1.015625-2.808594-2.808594zm-1.949219 1.953125 2.804687 2.804687-4.675781 4.679688-2.808594-2.808594zm-5.03125 8.773437c1.402343 1.402344-.582031 5.257813-3.855469 4.789063 1.871094-2.804687 1.046875-7.597656 3.855469-4.789063zm0 0" fill="#e0e0e0"/></svg>

<?xml version="1.0" encoding="UTF-8"?>
<svg xmlns="http://www.w3.org/2000/svg" xmlns:xlink="http://www.w3.org/1999/xlink" width="32px" height="32px" viewBox="0 0 32 32" version="1.1">
<g id="surface1">
<path style=" stroke:none;fill-rule:nonzero;fill:rgb(87.843138%,87.843138%,87.843138%);fill-opacity:1;" d="M 25.523438 5.714844 C 23.710938 3.898438 20.789062 3.898438 18.976562 5.714844 L 10.554688 14.132812 L 10.089844 14.601562 C 4.101562 17.839844 8.363281 20.59375 4.464844 25.800781 C 4.117188 26.140625 4.222656 26.726562 4.667969 26.921875 C 10.03125 29.226562 14.699219 27.847656 16.636719 21.148438 L 17.105469 20.683594 L 25.523438 12.261719 C 27.339844 10.449219 27.339844 7.527344 25.523438 5.714844 Z M 23.652344 7.585938 C 24.429688 8.363281 24.429688 9.613281 23.652344 10.390625 L 22.796875 11.246094 L 19.992188 8.441406 L 20.847656 7.585938 C 21.625 6.808594 22.875 6.808594 23.652344 7.585938 Z M 19.054688 9.375 L 21.863281 12.183594 L 20.847656 13.199219 L 18.039062 10.390625 Z M 17.105469 11.328125 L 19.910156 14.132812 L 15.234375 18.8125 L 12.425781 16.003906 Z M 12.074219 20.101562 C 13.476562 21.503906 11.492188 25.359375 8.21875 24.890625 C 10.089844 22.085938 9.265625 17.292969 12.074219 20.101562 Z M 12.074219 20.101562 "/>
</g>
</svg>
